germany/municipalities/03456009.svg

<?xml version="1.0" encoding="UTF-8" standalone="no"?>
<!-- Created with Inkscape (http://www.inkscape.org/) -->
<svg xmlns:dc="http://purl.org/dc/elements/1.1/" xmlns:cc="http://creativecommons.org/ns#" xmlns:rdf="http://www.w3.org/1999/02/22-rdf-syntax-ns#" xmlns:svg="http://www.w3.org/2000/svg" xmlns="http://www.w3.org/2000/svg" xmlns:sodipodi="http://sodipodi.sourceforge.net/DTD/sodipodi-0.dtd" xmlns:inkscape="http://www.inkscape.org/namespaces/inkscape" width="744.09448" height="850.39368" id="svg2" sodipodi:version="0.32" inkscape:version="0.46" version="1.0" sodipodi:docname="Wappen_Hoogstede.svg" inkscape:output_extension="org.inkscape.output.svg.inkscape">
  <defs id="defs4">
    <inkscape:perspective sodipodi:type="inkscape:persp3d" inkscape:vp_x="0 : 526.18109 : 1" inkscape:vp_y="0 : 1000 : 0" inkscape:vp_z="744.09448 : 526.18109 : 1" inkscape:persp3d-origin="372.04724 : 350.78739 : 1" id="perspective10"/>
    <inkscape:perspective id="perspective2447" inkscape:persp3d-origin="372.04724 : 350.78739 : 1" inkscape:vp_z="744.09448 : 526.18109 : 1" inkscape:vp_y="0 : 1000 : 0" inkscape:vp_x="0 : 526.18109 : 1" sodipodi:type="inkscape:persp3d"/>
  </defs>
  <sodipodi:namedview id="base" pagecolor="#ffffff" bordercolor="#666666" borderopacity="1.0" inkscape:pageopacity="0.0" inkscape:pageshadow="2" inkscape:zoom="0.40290394" inkscape:cx="-196.58092" inkscape:cy="316.57038" inkscape:document-units="px" inkscape:current-layer="layer1" showgrid="false" units="mm" inkscape:window-width="1095" inkscape:window-height="957" inkscape:window-x="64" inkscape:window-y="52"/>
  <metadata id="metadata7">
    <rdf:RDF>
      <cc:Work rdf:about="">
        <dc:format>image/svg+xml</dc:format>
        <dc:type rdf:resource="http://purl.org/dc/dcmitype/StillImage"/>
      </cc:Work>
    </rdf:RDF>
  </metadata>
  <g inkscape:label="Ebene 1" inkscape:groupmode="layer" id="layer1">
    <g id="g3171" transform="translate(6.05089, 3.91149)">
      <path sodipodi:nodetypes="czcczz" style="fill: rgb(248, 1, 1); stroke: rgb(0, 0, 0); stroke-width: 14.1732; stroke-miterlimit: 4; stroke-dasharray: none; stroke-opacity: 1;" d="M 365.89523,838.3465 C 188.98066,838.4826 5.1592,688.1737 4.7794,527.42 L 3.5433,4.2241 L 728.44941,5.1319 L 727.70114,525.0465 C 727.45938,693.02832 542.79982,838.2104 365.89523,838.3465 z" id="path2529"/>
      <path sodipodi:nodetypes="ccccc" style="fill: rgb(250, 220, 0); fill-opacity: 1; stroke: rgb(0, 0, 0); stroke-width: 7.08661; stroke-miterlimit: 4; stroke-dasharray: none; stroke-opacity: 1;" d="M 56.356121,674.20341 L 723.55476,4.4208129 L 4.5494,4.5138 L 5.4495,533.2259 C 3.8559517,597.52738 47.443302,655.58072 56.356121,674.20341 z" id="path3597"/>
      <path transform="translate(1147.61, -1254.17)" d="M -944.2038,1921.1232 A 43.436886,43.436886 0 1 1 -1031.0776,1921.1232 A 43.436886,43.436886 0 1 1 -944.2038,1921.1232 z" sodipodi:ry="43.436886" sodipodi:rx="43.436886" sodipodi:cy="1921.1232" sodipodi:cx="-987.64069" id="path3614" style="overflow: visible; marker: none; opacity: 0.98; fill: rgb(250, 220, 0); fill-opacity: 1; fill-rule: nonzero; stroke: rgb(0, 0, 0); stroke-width: 7.08661; stroke-linecap: round; stroke-linejoin: miter; stroke-miterlimit: 4; stroke-dasharray: none; stroke-dashoffset: 0pt; stroke-opacity: 1; visibility: visible; display: inline;" sodipodi:type="arc"/>
      <path sodipodi:nodetypes="cccccssssccccsccccsccccssssccccccccccccsssccccsccccsccccssscccccccc" style="fill: rgb(248, 1, 1); stroke: rgb(0, 0, 0); stroke-width: 7.08661; stroke-miterlimit: 4; stroke-dasharray: none; stroke-opacity: 1;" d="M 194.85042,398.9656 C 194.85042,378.2662 190.00532,373.7576 167.76122,373.7576 L 149.70172,373.7576 L 149.70172,328.6089 L 167.76122,328.6089 C 177.69392,328.6089 187.85242,326.5772 190.33552,324.094 C 196.19752,318.2321 196.19752,278.7875 190.33552,272.9255 C 187.85242,270.4423 177.18602,268.4106 166.63252,268.4106 C 156.07902,268.4106 145.41262,270.4423 142.92942,272.9255 C 140.44622,275.4087 138.41452,285.5672 138.41452,295.4999 L 138.41452,313.5593 L 89.50352,313.5593 L 89.50352,295.4999 C 89.50352,285.5672 87.47182,275.4087 84.98862,272.9255 C 82.50542,270.4423 72.34702,268.4106 62.41422,268.4106 L 44.35482,268.4106 L 44.35482,211.9748 L 62.41422,211.9748 C 72.34702,211.9748 82.50542,209.9431 84.98862,207.4599 C 87.47182,204.9767 89.50352,193.9717 89.50352,183.0044 L 89.50352,163.0637 L 138.41452,163.0637 L 138.41452,181.1232 C 138.41452,191.0559 140.44622,201.2144 142.92942,203.6975 C 145.41262,206.1807 156.07902,208.2124 166.63252,208.2124 C 177.18602,208.2124 187.85242,206.1807 190.33552,203.6975 C 196.19752,197.8356 196.19752,158.391 190.33552,152.529 C 187.85242,150.0458 177.69392,148.0141 167.76122,148.0141 L 149.70172,148.0141 L 149.70172,95.3407 L 167.76122,95.3407 C 190.00532,95.3407 194.85042,90.832 194.85042,70.1327 L 194.85042,53.9544 L 255.04862,53.9544 L 255.04862,70.1327 C 255.04862,90.832 259.89372,95.3407 282.13792,95.3407 L 300.19732,95.3407 L 300.19732,148.0141 L 282.13792,148.0141 C 272.20522,148.0141 262.04672,150.0458 259.56352,152.529 C 253.70162,158.391 253.70162,197.8356 259.56352,203.6975 C 265.42162,209.5557 301.11152,209.5557 306.96962,203.6975 C 309.45282,201.2144 311.48452,191.9024 311.48452,183.0044 L 311.48452,166.8261 L 360.39562,166.8261 L 360.39562,183.0044 C 360.39562,191.9024 362.42732,201.2144 364.91042,203.6975 C 367.39362,206.1807 379.24522,208.2124 391.24722,208.2124 L 413.06912,208.2124 L 413.06912,264.6483 L 391.24722,264.6483 C 379.24522,264.6483 367.39362,266.6799 364.91042,269.1631 C 362.42732,271.6463 360.39562,280.9582 360.39562,289.8563 L 360.39562,306.0346 L 311.48452,306.0346 L 311.48452,289.8563 C 311.48452,268.957 306.66132,264.6483 283.26662,264.6483 C 272.71312,264.6483 262.04672,266.6799 259.56352,269.1631 C 253.67022,275.0564 253.67022,318.2008 259.56352,324.094 C 262.04672,326.5772 272.20522,328.6089 282.13792,328.6089 L 300.19732,328.6089 L 300.19732,373.7576 L 282.13792,373.7576 C 259.89372,373.7576 255.04862,378.2662 255.04862,398.9656 L 255.04862,415.1439 L 194.85042,415.1439 L 194.85042,398.9656 z" id="path3595"/>
      <path sodipodi:nodetypes="cs" id="path3599" d="M 143.25478,695.4104 C 174.13637,702.1388 181.94648,689.6502 184.49788,667.33" style="fill: none; fill-rule: evenodd; stroke: rgb(0, 0, 0); stroke-width: 7.08661; stroke-linecap: round; stroke-linejoin: miter; stroke-miterlimit: 4; stroke-dasharray: none; stroke-opacity: 1;"/>
      <path transform="translate(1228.78, -1330.95)" d="M -944.2038,1921.1232 A 43.436886,43.436886 0 1 1 -1031.0776,1921.1232 A 43.436886,43.436886 0 1 1 -944.2038,1921.1232 z" sodipodi:ry="43.436886" sodipodi:rx="43.436886" sodipodi:cy="1921.1232" sodipodi:cx="-987.64069" id="path3616" style="overflow: visible; marker: none; opacity: 0.98; fill: rgb(250, 220, 0); fill-opacity: 1; fill-rule: nonzero; stroke: rgb(0, 0, 0); stroke-width: 7.08661; stroke-linecap: round; stroke-linejoin: miter; stroke-miterlimit: 4; stroke-dasharray: none; stroke-dashoffset: 0pt; stroke-opacity: 1; visibility: visible; display: inline;" sodipodi:type="arc"/>
      <path sodipodi:nodetypes="cs" id="path3602" d="M 225.16016,615.987 C 256.04175,622.7154 263.85186,610.2268 266.40326,587.9066" style="fill: none; fill-rule: evenodd; stroke: rgb(0, 0, 0); stroke-width: 7.08661; stroke-linecap: round; stroke-linejoin: miter; stroke-miterlimit: 4; stroke-dasharray: none; stroke-opacity: 1;"/>
      <path transform="translate(1302.49, -1405.54)" d="M -944.2038,1921.1232 A 43.436886,43.436886 0 1 1 -1031.0776,1921.1232 A 43.436886,43.436886 0 1 1 -944.2038,1921.1232 z" sodipodi:ry="43.436886" sodipodi:rx="43.436886" sodipodi:cy="1921.1232" sodipodi:cx="-987.64069" id="path3618" style="overflow: visible; marker: none; opacity: 0.98; fill: rgb(250, 220, 0); fill-opacity: 1; fill-rule: nonzero; stroke: rgb(0, 0, 0); stroke-width: 7.08661; stroke-linecap: round; stroke-linejoin: miter; stroke-miterlimit: 4; stroke-dasharray: none; stroke-dashoffset: 0pt; stroke-opacity: 1; visibility: visible; display: inline;" sodipodi:type="arc"/>
      <path sodipodi:nodetypes="cs" id="path3604" d="M 299.61959,539.0456 C 330.50118,545.774 338.31129,533.2854 340.86269,510.9652" style="fill: none; fill-rule: evenodd; stroke: rgb(0, 0, 0); stroke-width: 7.08661; stroke-linecap: round; stroke-linejoin: miter; stroke-miterlimit: 4; stroke-dasharray: none; stroke-opacity: 1;"/>
      <path transform="translate(1377.08, -1481.01)" d="M -944.2038,1921.1232 A 43.436886,43.436886 0 1 1 -1031.0776,1921.1232 A 43.436886,43.436886 0 1 1 -944.2038,1921.1232 z" sodipodi:ry="43.436886" sodipodi:rx="43.436886" sodipodi:cy="1921.1232" sodipodi:cx="-987.64069" id="path3620" style="overflow: visible; marker: none; opacity: 0.98; fill: rgb(250, 220, 0); fill-opacity: 1; fill-rule: nonzero; stroke: rgb(0, 0, 0); stroke-width: 7.08661; stroke-linecap: round; stroke-linejoin: miter; stroke-miterlimit: 4; stroke-dasharray: none; stroke-dashoffset: 0pt; stroke-opacity: 1; visibility: visible; display: inline;" sodipodi:type="arc"/>
      <path sodipodi:nodetypes="cs" id="path3606" d="M 374.95654,464.5862 C 405.83813,471.3146 413.64824,458.826 416.19964,436.5058" style="fill: none; fill-rule: evenodd; stroke: rgb(0, 0, 0); stroke-width: 7.08661; stroke-linecap: round; stroke-linejoin: miter; stroke-miterlimit: 4; stroke-dasharray: none; stroke-opacity: 1;"/>
      <path transform="translate(1453.43, -1558.23)" d="M -944.2038,1921.1232 A 43.436886,43.436886 0 1 1 -1031.0776,1921.1232 A 43.436886,43.436886 0 1 1 -944.2038,1921.1232 z" sodipodi:ry="43.436886" sodipodi:rx="43.436886" sodipodi:cy="1921.1232" sodipodi:cx="-987.64069" id="path3622" style="overflow: visible; marker: none; opacity: 0.98; fill: rgb(250, 220, 0); fill-opacity: 1; fill-rule: nonzero; stroke: rgb(0, 0, 0); stroke-width: 7.08661; stroke-linecap: round; stroke-linejoin: miter; stroke-miterlimit: 4; stroke-dasharray: none; stroke-dashoffset: 0pt; stroke-opacity: 1; visibility: visible; display: inline;" sodipodi:type="arc"/>
      <path sodipodi:nodetypes="cs" id="path3608" d="M 453.50243,391.3678 C 484.38402,398.0962 492.19413,385.6076 494.74553,363.2874" style="fill: none; fill-rule: evenodd; stroke: rgb(0, 0, 0); stroke-width: 7.08661; stroke-linecap: round; stroke-linejoin: miter; stroke-miterlimit: 4; stroke-dasharray: none; stroke-opacity: 1;"/>
      <path transform="translate(1528.89, -1631.94)" d="M -944.2038,1921.1232 A 43.436886,43.436886 0 1 1 -1031.0776,1921.1232 A 43.436886,43.436886 0 1 1 -944.2038,1921.1232 z" sodipodi:ry="43.436886" sodipodi:rx="43.436886" sodipodi:cy="1921.1232" sodipodi:cx="-987.64069" id="path3624" style="overflow: visible; marker: none; opacity: 0.98; fill: rgb(250, 220, 0); fill-opacity: 1; fill-rule: nonzero; stroke: rgb(0, 0, 0); stroke-width: 7.08661; stroke-linecap: round; stroke-linejoin: miter; stroke-miterlimit: 4; stroke-dasharray: none; stroke-dashoffset: 0pt; stroke-opacity: 1; visibility: visible; display: inline;" sodipodi:type="arc"/>
      <path sodipodi:nodetypes="cs" id="path3610" d="M 527.96186,314.4263 C 558.84345,321.1547 566.65356,308.6661 569.20496,286.3459" style="fill: none; fill-rule: evenodd; stroke: rgb(0, 0, 0); stroke-width: 7.08661; stroke-linecap: round; stroke-linejoin: miter; stroke-miterlimit: 4; stroke-dasharray: none; stroke-opacity: 1;"/>
      <path transform="translate(1605.23, -1710.92)" d="M -944.2038,1921.1232 A 43.436886,43.436886 0 1 1 -1031.0776,1921.1232 A 43.436886,43.436886 0 1 1 -944.2038,1921.1232 z" sodipodi:ry="43.436886" sodipodi:rx="43.436886" sodipodi:cy="1921.1232" sodipodi:cx="-987.64069" id="path3626" style="overflow: visible; marker: none; opacity: 0.98; fill: rgb(250, 220, 0); fill-opacity: 1; fill-rule: nonzero; stroke: rgb(0, 0, 0); stroke-width: 7.08661; stroke-linecap: round; stroke-linejoin: miter; stroke-miterlimit: 4; stroke-dasharray: none; stroke-dashoffset: 0pt; stroke-opacity: 1; visibility: visible; display: inline;" sodipodi:type="arc"/>
      <path sodipodi:nodetypes="cs" id="path3612" d="M 605.0173,236.1771 C 635.89889,242.9055 643.709,230.4169 646.2604,208.0967" style="fill: none; fill-rule: evenodd; stroke: rgb(0, 0, 0); stroke-width: 7.08661; stroke-linecap: round; stroke-linejoin: miter; stroke-miterlimit: 4; stroke-dasharray: none; stroke-opacity: 1;"/>
      <text id="text3167" y="6.48343" x="-1.5532" style="font-size: 12.2774px; font-style: normal; font-weight: normal; fill: rgb(0, 0, 0); fill-opacity: 1; stroke: none; stroke-width: 1px; stroke-linecap: butt; stroke-linejoin: miter; stroke-opacity: 1; font-family: Bitstream Vera Sans;" xml:space="preserve"><tspan y="6.48343" x="-1.5532" id="tspan3169" sodipodi:role="line">JanVolkersNeuss</tspan></text>
    </g>
  </g>
</svg>

<svg xmlns="http://www.w3.org/2000/svg" width="744.094" height="850.394" version="1.0"><path style="fill:#f80101;stroke:#000;stroke-width:14.1732;stroke-miterlimit:4;stroke-dasharray:none;stroke-opacity:1" d="M365.895 838.346C188.981 838.483 5.16 688.174 4.78 527.42L3.543 4.224l724.906.908-.748 519.915c-.242 167.981-184.901 313.163-361.806 313.3z" transform="translate(6.05 3.911)"/><path style="fill:#fadc00;fill-opacity:1;stroke:#000;stroke-width:7.08661;stroke-miterlimit:4;stroke-dasharray:none;stroke-opacity:1" d="M56.356 674.203 723.555 4.421 4.549 4.514l.9 528.712C3.856 597.527 47.444 655.58 56.356 674.203z" transform="translate(6.05 3.911)"/><path transform="translate(1153.66 -1250.259)" d="M-944.204 1921.123a43.437 43.437 0 1 1-86.874 0 43.437 43.437 0 1 1 86.874 0z" style="overflow:visible;marker:none;opacity:.98;fill:#fadc00;fill-opacity:1;fill-rule:nonzero;stroke:#000;stroke-width:7.08661;stroke-linecap:round;stroke-linejoin:miter;stroke-miterlimit:4;stroke-dasharray:none;stroke-dashoffset:0;stroke-opacity:1;visibility:visible;display:inline"/><path style="fill:#f80101;stroke:#000;stroke-width:7.08661;stroke-miterlimit:4;stroke-dasharray:none;stroke-opacity:1" d="M194.85 398.966c0-20.7-4.845-25.208-27.089-25.208h-18.06v-45.15h18.06c9.933 0 20.091-2.03 22.575-4.514 5.862-5.862 5.862-45.306 0-51.168-2.484-2.484-13.15-4.515-23.703-4.515-10.554 0-21.22 2.031-23.704 4.514-2.483 2.484-4.514 12.642-4.514 22.575v18.06H89.504V295.5c0-9.933-2.032-20.091-4.515-22.575-2.484-2.483-12.642-4.514-22.575-4.514h-18.06v-56.436h18.06c9.933 0 20.091-2.032 22.575-4.515 2.483-2.483 4.515-13.488 4.515-24.456v-19.94h48.91v18.06c0 9.932 2.032 20.09 4.515 22.573 2.484 2.484 13.15 4.515 23.704 4.515 10.553 0 21.22-2.031 23.703-4.514 5.862-5.862 5.862-45.307 0-51.169-2.484-2.483-12.642-4.515-22.575-4.515h-18.06V95.341h18.06c22.244 0 27.09-4.509 27.09-25.208V53.954h60.198v16.179c0 20.699 4.845 25.208 27.089 25.208h18.06v52.673h-18.06c-9.933 0-20.091 2.032-22.574 4.515-5.862 5.862-5.862 45.307 0 51.168 5.858 5.859 41.548 5.859 47.406 0 2.483-2.483 4.515-11.795 4.515-20.693v-16.178h48.91v16.178c0 8.898 2.032 18.21 4.515 20.694 2.484 2.483 14.335 4.514 26.337 4.514h21.822v56.436h-21.822c-12.002 0-23.853 2.032-26.337 4.515-2.483 2.483-4.514 11.795-4.514 20.693v16.179h-48.911v-16.179c0-20.899-4.824-25.208-28.218-25.208-10.554 0-21.22 2.032-23.703 4.515-5.894 5.893-5.894 49.038 0 54.931 2.483 2.483 12.641 4.515 22.574 4.515h18.06v45.149h-18.06c-22.244 0-27.09 4.508-27.09 25.208v16.178H194.85v-16.178z" transform="translate(6.05 3.911)"/><path d="M143.255 695.41c30.881 6.729 38.691-5.76 41.243-28.08" style="fill:none;fill-rule:evenodd;stroke:#000;stroke-width:7.08661;stroke-linecap:round;stroke-linejoin:miter;stroke-miterlimit:4;stroke-dasharray:none;stroke-opacity:1" transform="translate(6.05 3.911)"/><path transform="translate(1234.83 -1327.039)" d="M-944.204 1921.123a43.437 43.437 0 1 1-86.874 0 43.437 43.437 0 1 1 86.874 0z" style="overflow:visible;marker:none;opacity:.98;fill:#fadc00;fill-opacity:1;fill-rule:nonzero;stroke:#000;stroke-width:7.08661;stroke-linecap:round;stroke-linejoin:miter;stroke-miterlimit:4;stroke-dasharray:none;stroke-dashoffset:0;stroke-opacity:1;visibility:visible;display:inline"/><path d="M225.16 615.987c30.882 6.728 38.692-5.76 41.243-28.08" style="fill:none;fill-rule:evenodd;stroke:#000;stroke-width:7.08661;stroke-linecap:round;stroke-linejoin:miter;stroke-miterlimit:4;stroke-dasharray:none;stroke-opacity:1" transform="translate(6.05 3.911)"/><path transform="translate(1308.54 -1401.629)" d="M-944.204 1921.123a43.437 43.437 0 1 1-86.874 0 43.437 43.437 0 1 1 86.874 0z" style="overflow:visible;marker:none;opacity:.98;fill:#fadc00;fill-opacity:1;fill-rule:nonzero;stroke:#000;stroke-width:7.08661;stroke-linecap:round;stroke-linejoin:miter;stroke-miterlimit:4;stroke-dasharray:none;stroke-dashoffset:0;stroke-opacity:1;visibility:visible;display:inline"/><path d="M299.62 539.046c30.881 6.728 38.691-5.76 41.243-28.08" style="fill:none;fill-rule:evenodd;stroke:#000;stroke-width:7.08661;stroke-linecap:round;stroke-linejoin:miter;stroke-miterlimit:4;stroke-dasharray:none;stroke-opacity:1" transform="translate(6.05 3.911)"/><path transform="translate(1383.13 -1477.099)" d="M-944.204 1921.123a43.437 43.437 0 1 1-86.874 0 43.437 43.437 0 1 1 86.874 0z" style="overflow:visible;marker:none;opacity:.98;fill:#fadc00;fill-opacity:1;fill-rule:nonzero;stroke:#000;stroke-width:7.08661;stroke-linecap:round;stroke-linejoin:miter;stroke-miterlimit:4;stroke-dasharray:none;stroke-dashoffset:0;stroke-opacity:1;visibility:visible;display:inline"/><path d="M374.957 464.586c30.881 6.729 38.691-5.76 41.243-28.08" style="fill:none;fill-rule:evenodd;stroke:#000;stroke-width:7.08661;stroke-linecap:round;stroke-linejoin:miter;stroke-miterlimit:4;stroke-dasharray:none;stroke-opacity:1" transform="translate(6.05 3.911)"/><path transform="translate(1459.48 -1554.319)" d="M-944.204 1921.123a43.437 43.437 0 1 1-86.874 0 43.437 43.437 0 1 1 86.874 0z" style="overflow:visible;marker:none;opacity:.98;fill:#fadc00;fill-opacity:1;fill-rule:nonzero;stroke:#000;stroke-width:7.08661;stroke-linecap:round;stroke-linejoin:miter;stroke-miterlimit:4;stroke-dasharray:none;stroke-dashoffset:0;stroke-opacity:1;visibility:visible;display:inline"/><path d="M453.502 391.368c30.882 6.728 38.692-5.76 41.244-28.08" style="fill:none;fill-rule:evenodd;stroke:#000;stroke-width:7.08661;stroke-linecap:round;stroke-linejoin:miter;stroke-miterlimit:4;stroke-dasharray:none;stroke-opacity:1" transform="translate(6.05 3.911)"/><path transform="translate(1534.94 -1628.029)" d="M-944.204 1921.123a43.437 43.437 0 1 1-86.874 0 43.437 43.437 0 1 1 86.874 0z" style="overflow:visible;marker:none;opacity:.98;fill:#fadc00;fill-opacity:1;fill-rule:nonzero;stroke:#000;stroke-width:7.08661;stroke-linecap:round;stroke-linejoin:miter;stroke-miterlimit:4;stroke-dasharray:none;stroke-dashoffset:0;stroke-opacity:1;visibility:visible;display:inline"/><path d="M527.962 314.426c30.881 6.729 38.692-5.76 41.243-28.08" style="fill:none;fill-rule:evenodd;stroke:#000;stroke-width:7.08661;stroke-linecap:round;stroke-linejoin:miter;stroke-miterlimit:4;stroke-dasharray:none;stroke-opacity:1" transform="translate(6.05 3.911)"/><path transform="translate(1611.28 -1707.009)" d="M-944.204 1921.123a43.437 43.437 0 1 1-86.874 0 43.437 43.437 0 1 1 86.874 0z" style="overflow:visible;marker:none;opacity:.98;fill:#fadc00;fill-opacity:1;fill-rule:nonzero;stroke:#000;stroke-width:7.08661;stroke-linecap:round;stroke-linejoin:miter;stroke-miterlimit:4;stroke-dasharray:none;stroke-dashoffset:0;stroke-opacity:1;visibility:visible;display:inline"/><path d="M605.017 236.177c30.882 6.728 38.692-5.76 41.243-28.08" style="fill:none;fill-rule:evenodd;stroke:#000;stroke-width:7.08661;stroke-linecap:round;stroke-linejoin:miter;stroke-miterlimit:4;stroke-dasharray:none;stroke-opacity:1" transform="translate(6.05 3.911)"/><text y="6.483" x="-1.553" style="font-size:12.2774px;font-style:normal;font-weight:400;fill:#000;fill-opacity:1;stroke:none;stroke-width:1px;stroke-linecap:butt;stroke-linejoin:miter;stroke-opacity:1;font-family:Bitstream Vera Sans" xml:space="preserve" transform="translate(6.05 3.911)"><tspan y="6.483" x="-1.553">JanVolkersNeuss</tspan></text></svg>
